!!!!SEGMENT: pl-kk--kk-i-8--015_anonim--ego-dormio-et-cor-meum.krn
!!!cenid: 16xx:1156
!!!COM: Anonim
!!!COM-rism: pe30004985
!!!CDT:
!!!CNT:
!!!OTL: Ego dormio et cor meum
!!!PDT:
!!!AGN: Sacred
!!!SMS-siglum: PL-Kk
!!!SMS-shelfmark: Kk.I.8
!!!NIFC-rismID: 1001148764
!!!URL-scan: http://repozytorium.nifc.pl/skany/pl-kk-nut--i-8
!!!ONB-nifc: UWAGA: A (skan 0009, s.8r), T1 (0033, s.9r), T2 (0056, s.8r), B (0079, s.8r). Następny utwór: Exultet orbis gaudiis
!!!SMS-variant:
!!!SMS-altvar:
**kern	**text	**text	**text	**kern	**text	**text	**text	**kern	**text	**text	**kern	**text
*part4	*part4	*part4	*part4	*part3	*part3	*part3	*part3	*part2	*part2	*part2	*part1	*part1
*staff4	*staff4	*staff4	*staff4	*staff3	*staff3	*staff3	*staff3	*staff2	*staff2	*staff2	*staff1	*staff1
*I"BASSVS.	*	*	*	*I"TENOR 2dus.	*	*	*	*I"Tenore 1mo	*	*	*I"alto.	*
*I'B	*	*	*	*I'T 2	*	*	*	*I'T 1	*	*	*I'A	*
*clefF4	*	*	*	*clefC1	*	*	*	*clefC4	*	*	*clefC3	*
*k[]	*	*	*	*k[]	*	*	*	*k[]	*	*	*k[]	*
*M2/1	*	*	*	*M2/1	*	*	*	*M2/1	*	*	*M2/1	*
*met(C|)	*	*	*	*met(C|)	*	*	*	*met(C|)	*	*	*met(C|)	*
=1-	=1-	=1-	=1-	=1-	=1-	=1-	=1-	=1-	=1-	=1-	=1-	=1-
1.A	E-	.	.	0r	.	.	.	2.e\	E-	.	0rc	.
.	.	.	.	.	.	.	.	4d\	-go	.	.	.
.	.	.	.	.	.	.	.	2c\	dor-	.	.	.
2G\	-go	.	.	.	.	.	.	2B\	.	.	.	.
=2-	=2-	=2-	=2-	=2-	=2-	=2-	=2-	=2-	=2-	=2-	=2-	=2-
2.F\	dor-	.	.	1.a	E-	.	.	2c\	.	.	1rc	.
.	.	.	.	.	.	.	.	2d\	-mi-	.	.	.
4F\	-mi-	.	.	.	.	.	.	.	.	.	.	.
1E	-o	.	.	.	.	.	.	1e	-o	.	2r	.
.	.	.	.	2g/	-go	.	.	.	.	.	1e\	E-
=3-	=3-	=3-	=3-	=3-	=3-	=3-	=3-	=3-	=3-	=3-	=3-	=3-
0r	.	.	.	2.f/	dor-	.	.	1re	.	.	.	.
.	.	.	.	.	.	.	.	.	.	.	2d\	-go
.	.	.	.	4f/	-mi-	.	.	.	.	.	.	.
*	*	*	*	*	*	*	*	*	*ij	*	*	*
.	.	.	.	1e	-o	.	.	1.A	E-	.	2.c/	dor-
.	.	.	.	.	.	.	.	.	.	.	4c/	-mi-
=4-	=4-	=4-	=4-	=4-	=4-	=4-	=4-	=4-	=4-	=4-	=4-	=4-
1r	.	.	.	2r	.	.	.	.	.	.	1B	-o
.	.	.	.	2.e/	et	.	.	2G/	-go	.	.	.
2A\	et	.	.	.	.	.	.	2.F/	dor-	.	1r	.
.	.	.	.	8d/L	.	.	.	.	.	.	.	.
.	.	.	.	8c/J	.	.	.	.	.	.	.	.
2A\	Cor	.	.	2d/	cor	.	.	.	.	.	.	.
.	.	.	.	.	.	.	.	4F/	-mi-	.	.	.
=5-	=5-	=5-	=5-	=5-	=5-	=5-	=5-	=5-	=5-	=5-	=5-	=5-
2B\	me-	.	.	2e/	.	.	.	1E	-o	.	2.e\	et
*	*	*	*	*	*	*	*	*	*Xij	*	*	*
!LO:TX:t=P:problem:kreska pseudotaktowa	!	!	!	!	!	!	!	!	!	!	!	!
2B\	-u(m)	.	.	1g	me-	.	.	.	.	.	.	.
.	.	.	.	.	.	.	.	.	.	.	4e\	Cor
4c\	Vi-	.	.	.	.	.	.	1r	.	.	4e\	me-
4B\	.	.	.	.	.	.	.	.	.	.	4d\	.
4A\	.	.	.	2.a\	-u(m)	.	.	.	.	.	4c\	.
4G\	.	.	.	.	.	.	.	.	.	.	4B/	.
=6-	=6-	=6-	=6-	=6-	=6-	=6-	=6-	=6-	=6-	=6-	=6-	=6-
4F\	.	.	.	.	.	.	.	2r	.	.	2A/	.
4E\	.	.	.	4g/	.	.	.	.	.	.	.	.
2D/	.	.	.	2f/	vi-	.	.	1A	et	.	2d\	-u(m)
2.E\	.	.	.	2.e/	.	.	.	.	.	.	2.B/	vi-
.	.	.	.	.	.	.	.	2G/	cor	.	.	.
4E\	-gi-	.	.	4e/	-gi-	.	.	.	.	.	4B/	-gi-
=7-	=7-	=7-	=7-	=7-	=7-	=7-	=7-	=7-	=7-	=7-	=7-	=7-
1AA	-lat	.	.	1e	-lat	.	.	2A\	me-	.	1A	-lat
.	.	.	.	.	.	.	.	2c\	-u(m)	.	.	.
00r	.	.	.	2r	.	.	.	4c\	Vi-	.	2.e\	et
.	.	.	.	.	.	.	.	4B\	.	.	.	.
*	*	*	*	*	*ij	*	*	*	*	*	*	*
.	.	.	.	2cc\	cor	.	.	4A/	.	.	.	.
.	.	.	.	.	.	.	.	4G/	.	.	4e\	Cor
=8-	=8-	=8-	=8-	=8-	=8-	=8-	=8-	=8-	=8-	=8-	=8-	=8-
.	.	.	.	2cc\	me-	.	.	4F/	.	.	1f	me-
.	.	.	.	.	.	.	.	4E/	.	.	.	.
.	.	.	.	2.dd\	.	.	.	2D/	.	.	.	.
.	.	.	.	.	.	.	.	2.E/	.	.	1e	-u(m)
.	.	.	.	4cc\	-um	.	.	.	.	.	.	.
.	.	.	.	1cc\	vi-	.	.	.	.	.	.	.
.	.	.	.	.	.	.	.	4F/	.	.	.	.
=9-	=9-	=9-	=9-	=9-	=9-	=9-	=9-	=9-	=9-	=9-	=9-	=9-
.	.	.	.	.	.	.	.	2.G/	.	.	2.d\	vi-
.	.	.	.	2b\	gi-	.	.	.	.	.	.	.
.	.	.	.	.	.	.	.	4G/	-gi-	.	4d\	-gi-
2r	.	.	.	2cc\	-lat	.	.	2C/	-lat	.	2e\	-lat
*	*	*	*	*	*Xij	*	*	*	*	*	*	*
1C/	Vox	.	.	1g\	Vox	.	.	1c\	Vox	.	1e\	Vox
=10-	=10-	=10-	=10-	=10-	=10-	=10-	=10-	=10-	=10-	=10-	=10-	=10-
.	.	.	.	.	.	.	.	.	.	.	.	.
2C/	di-	.	.	2g/	di-	.	.	2c\	di-	.	2e\	di-
!	!	!	!	!	!	!	!	!LO:LB:g=original	!	!	!	!
2GG/	-le-	.	.	2g/	-le-	.	.	2B\	-le-	.	2d\	-le-
2GG/	-cti	.	.	2g/	-cti	.	.	2B\	-cti	.	2g\	-cti
!	!	!	!	!	!	!	!	!	!	!	!LO:LB:g=original	!
!	!	!	!	!LO:LB:g=original	!	!	!	!	!	!	!	!
=11-	=11-	=11-	=11-	=11-	=11-	=11-	=11-	=11-	=11-	=11-	=11-	=11-
1AA	me-	.	.	1cc	me-	.	.	4A\	me-	.	1e	[me]i
.	.	.	.	.	.	.	.	4B\	.	.	.	.
.	.	.	.	.	.	.	.	4c\	.	.	.	.
.	.	.	.	.	.	.	.	8B/L	.	.	.	.
.	.	.	.	.	.	.	.	8A/J	.	.	.	.
2E\	-i	.	.	2b\	-i	.	.	4G/	.	.	(>1.e	pul-
.	.	.	.	.	.	.	.	2A/	.	.	.	.
2E\	pul-	.	.	2b\	pul-	.	.	.	.	.	.	.
!	!	!	!	!	!	!	!	!LO:TX:t=P:problem:♯ below	!	!	!	!
.	.	.	.	.	.	.	.	4G#X/	.	.	.	.
=12-	=12-	=12-	=12-	=12-	=12-	=12-	=12-	=12-	=12-	=12-	=12-	=12-
*lig	*	*	*	*	*	*	*	*	*	*	*	*
1F	-ſan-	.	.	4a\	-ſan-	.	.	2A/	-i	.	.	.
.	.	.	.	4b\	.	.	.	.	.	.	.	.
.	.	.	.	4cc\	.	.	.	2A/	pul-	.	2d\)	-ſan-
.	.	.	.	8b\L	.	.	.	.	.	.	.	.
.	.	.	.	8a\J	.	.	.	.	.	.	.	.
!	!	!	!	!LO:TX:a:t=P:problem:# below	!	!	!	!	!	!	!	!
1E	.	.	.	4g#X/	.	.	.	1B	-ſan-	.	1e	-tis
.	.	.	.	2a\	.	.	.	.	.	.	.	.
!	!	!	!	!LO:TX:a:t=P:problem:# below	!	!	!	!	!	!	!	!
.	.	.	.	4g#X/	.	.	.	.	.	.	.	.
*Xlig	*	*	*	*	*	*	*	*	*	*	*	*
=13-	=13-	=13-	=13-	=13-	=13-	=13-	=13-	=13-	=13-	=13-	=13-	=13-
!	!	!	!	!	!	!	!	!LO:TX:t=P:problem:♯ above	!	!	!	!
1AA	-tiſ	.	.	1a	-tis	.	.	1c#X	-tis	.	1e	.
!LO:LB:g=original	!	!	!	!	!	!	!	!	!	!	!	!
=14-	=14-	=14-	=14-	=14-	=14-	=14-	=14-	=14-	=14-	=14-	=14-	=14-
*M3/1	*	*	*	*M3/1	*	*	*	*M3/1	*	*	*M3/1	*
1.c	a-	.	.	1.cc	a-	.	.	1.e	a-	.	1.g	a-
2G\	-pe-	.	.	2b\	-pe-	.	.	2d\	-pe-	.	2g\	-pe-
1A	-ri	.	.	1a	-ri	.	.	1cny	-ri	.	1e	-ri
=15-	=15-	=15-	=15-	=15-	=15-	=15-	=15-	=15-	=15-	=15-	=15-	=15-
0E	mi-	.	.	0gny	mi-	.	.	0B	mi-	.	0e	mi-
1E	-hi	.	.	1g	-hi	.	.	1B	-hi	.	1e	-hi
=16-	=16-	=16-	=16-	=16-	=16-	=16-	=16-	=16-	=16-	=16-	=16-	=16-
*	*ij	*	*	*	*ij	*	*	*	*ij	*	*	*ij
1.C	a-	.	.	1.g	a-	.	.	1.c	a-	.	1.e	a-
2GG/	-pe-	.	.	2g/	-pe-	.	.	2B\	-pe-	.	2d\	-pe-
1AA	-ri	.	.	1e	-ri	.	.	1A	-ri	.	1c	-ri
=17-	=17-	=17-	=17-	=17-	=17-	=17-	=17-	=17-	=17-	=17-	=17-	=17-
!	!	!	!	!	!	!	!	!LO:TX:t=P:problem:♯ below	!	!	!	!
0E	mi-	.	.	0e	mi-	.	.	0G#X	mi-	.	0B	mi-
!	!	!	!	!	!	!	!	!LO:TX:t=P:problem:♯ below	!	!	!	!
1E	-hi	.	.	1e	-hi	.	.	1G#X	-hi	.	1B	-hi
*	*Xij	*	*	*	*Xij	*	*	*	*Xij	*	*	*Xij
=18-	=18-	=18-	=18-	=18-	=18-	=18-	=18-	=18-	=18-	=18-	=18-	=18-
0AA	1So-	2 colum-	3 ami-	0cc	1. So-	2. colum-	3. ami-	0A	1. So-	2. ami-	0e	So-
!LO:TX:t=P:problem:znak wskazujacy podział sylabiczny?	!	!	!	!	!	!	!	!	!	!	!	!
1GG	-ror	-ba	-ca	1b	-ror	-ba	-ca	1B	-ror	-ca	1e	-ror
=19-	=19-	=19-	=19-	=19-	=19-	=19-	=19-	=19-	=19-	=19-	=19-	=19-
0.AA	me-	me-	me-	0.a	me-	me-	me-	0.c	me-	me-	0.e	me-
=20-	=20-	=20-	=20-	=20-	=20-	=20-	=20-	=20-	=20-	=20-	=20-	=20-
*M2/1	*	*	*	*	*	*	*	*	*	*	*M2/1	*
*met(C|)	*	*	*	*	*	*	*	*	*	*	*met(C|)	*
!	!	!	!	!	!	!	!	!LO:TX:t=P:problem:kreska pseudotaktowa	!	!	!	!
!LO:N:vis=1	!	!	!	!LO:N:vis=0.	!	!	!	!LO:N:vis=0.	!	!	!	!
!	!	!	!	!	!	!	!	!	!	!	!LO:TX:t=P:problem:niezgodność metryczna	!
!LO:TX:t=P:problem:kreska pseudotaktowa	!	!	!	!LO:TX:a:t=P:problem:# above	!	!	!	!	!	!	!	!
0E	-a	-a	-a	0g#X	-a	-a	-a	0B	-a	-a	1e	a
.	.	.	.	.	.	.	.	.	.	.	1rg	.
=21-	=21-	=21-	=21-	=21-	=21-	=21-	=21-	=21-	=21-	=21-	=21-	=21-
*	*	*	*	*M2/1	*	*	*	*M2/1	*	*	*	*
*	*	*	*	*met(C|)	*	*	*	*met(C|)	*	*	*	*
!	!	!	!	!	!	!	!	!	!	!	!LO:N:vis=2	!
2r	.	.	.	1rg	.	.	.	2r	.	.	1.re	.
2A\	a-	.	.	.	.	.	.	2c\	a-	.	.	.
!	!	!	!	!	!	!	!	!LO:LB:g=original	!	!	!	!
2G\	-mi-	.	.	2re	.	.	.	2B\	-mi-	.	.	.
2A\	-ca	.	.	2a\	a-	.	.	2c\	-ca	.	2e\	a-
=22-	=22-	=22-	=22-	=22-	=22-	=22-	=22-	=22-	=22-	=22-	=22-	=22-
2E\	me-	.	.	2g/ny	-mi-	.	.	2B\	me-	.	2e\	-mi-
2AA/	-a	.	.	2e/	-ca	.	.	2A/	-a	.	2c/	-ca
!	!	!	!	!LO:LB:g=original	!	!	!	!	!	!	!	!
2r	.	.	.	2d/	me-	.	.	2r	.	.	2B/	me-
*	*ij	*	*	*	*	*	*	*	*ij	*	*	*
2A\	a-	.	.	2e/	-a	.	.	2c\	a-	.	2A/	-a
!	!	!	!	!	!	!	!	!	!	!	!LO:LB:g=original	!
=23-	=23-	=23-	=23-	=23-	=23-	=23-	=23-	=23-	=23-	=23-	=23-	=23-
2G\	-mi-	.	.	2r	.	.	.	2B\	-mi-	.	2r	.
*	*	*	*	*	*ij	*	*	*	*	*	*	*ij
2E\	-ca	.	.	2b\	a-	.	.	2G/ny	-ca	.	2e\	a-
*lig	*	*	*	*	*	*	*	*	*	*	*	*
1F	me-	.	.	2a\	-mi-	.	.	4A\	me-	.	2e\	-mi-
.	.	.	.	.	.	.	.	4B\	.	.	.	.
.	.	.	.	2a\	-ca	.	.	4c\	.	.	2d\	-ca
.	.	.	.	.	.	.	.	8B\L	.	.	.	.
.	.	.	.	.	.	.	.	8A\J	.	.	.	.
=24-	=24-	=24-	=24-	=24-	=24-	=24-	=24-	=24-	=24-	=24-	=24-	=24-
!	!	!	!	!LO:TX:a:t=P:problem:# below	!	!	!	!	!	!	!	!
1E	.	.	.	4g#X/	me-	.	.	4B\	.	.	1e	me-
.	.	.	.	2a\	.	.	.	4A/	.	.	.	.
.	.	.	.	.	.	.	.	2B\	.	.	.	.
!	!	!	!	!LO:TX:a:t=P:problem:# below	!	!	!	!	!	!	!	!
.	.	.	.	4g#X/	.	.	.	.	.	.	.	.
*Xlig	*	*	*	*	*	*	*	*	*	*	*	*
!	!	!	!	!	!	!	!	!LO:TX:t=P:problem:♯ above	!	!	!	!
1AA	a	.	.	1a	-a	.	.	1c#X	-a	.	1e	-a
*	*Xij	*	*	*	*Xij	*	*	*	*Xij	*	*	*Xij
=25-	=25-	=25-	=25-	=25-	=25-	=25-	=25-	=25-	=25-	=25-	=25-	=25-
!	!	!	!	!LO:TX:a:t=aperi\nut\nſup[ra]	!	!	!	!	!	!	!	!
1E	.	.	.	1ryy	.	.	.	1ryy	.	.	1ryy	.
!	!	!	!	!	!	!	!	!LO:TX:a:t=aperi\nut ſup[ra]	!	!	!	!
=26-	=26-	=26-	=26-	=26-	=26-	=26-	=26-	=26-	=26-	=26-	=26-	=26-
*M3/1	*	*	*	*M3/1	*	*	*	*M3/1	*	*	*M3/1	*
1.c	a-	.	.	1.cc	a-	.	.	1.e	a-	.	1.g	a-
2G\	-pe-	.	.	2b\	-pe-	.	.	2d\	-pe-	.	2g\	-pe-
1A	-ri	.	.	1a	-ri	.	.	1cny	-ri	.	1e	-ri
=27-	=27-	=27-	=27-	=27-	=27-	=27-	=27-	=27-	=27-	=27-	=27-	=27-
0E	mi-	.	.	0gny	mi-	.	.	0B	mi-	.	0e	mi-
1E	-hi	.	.	1g	-hi	.	.	1B	-hi	.	1e	-hi
=28-	=28-	=28-	=28-	=28-	=28-	=28-	=28-	=28-	=28-	=28-	=28-	=28-
*	*ij	*	*	*	*ij	*	*	*	*ij	*	*	*ij
1.C	a-	.	.	1.g	a-	.	.	1.c	a-	.	1.e	a-
2GG/	-pe-	.	.	2g/	-pe-	.	.	2B\	-pe-	.	2e\	-pe-
1AA	-ri	.	.	1e	-ri	.	.	1A	-ri	.	1c	-ri
=29-	=29-	=29-	=29-	=29-	=29-	=29-	=29-	=29-	=29-	=29-	=29-	=29-
0E	mi-	.	.	0e	mi-	.	.	0G	mi-	.	0B	mi-
!	!	!	!	!	!	!	!	!LO:TX:t=P:problem:♯ above	!	!	!	!
1E	-hi	.	.	1e	-hi	.	.	1G#X	-hi	.	1B	-hi
*	*Xij	*	*	*	*Xij	*	*	*	*Xij	*	*	*Xij
=30-	=30-	=30-	=30-	=30-	=30-	=30-	=30-	=30-	=30-	=30-	=30-	=30-
0AA	1So-	2 colum-	3 ami-	0cc	1. So-	2. colum-	3. ami-	1A	co-	.	1e	co-
.	.	.	.	.	.	.	.	1A	-lum-	.	1e	-lum-
1GG	-ror	-ba	-ca	1b	-ror	-ba	-ca	1B	-ba	.	1e	-ba
=31-	=31-	=31-	=31-	=31-	=31-	=31-	=31-	=31-	=31-	=31-	=31-	=31-
0.AA	me-	me-	me-	0.a	me-	me-	me-	0.c	me-	.	0.e	me-
=32-	=32-	=32-	=32-	=32-	=32-	=32-	=32-	=32-	=32-	=32-	=32-	=32-
*M2/1	*	*	*	*	*	*	*	*M2/1	*	*	*M2/1	*
*met(C|)	*	*	*	*	*	*	*	*met(C|)	*	*	*met(C|)	*
!LO:N:vis=1	!	!	!	!LO:N:vis=0.	!	!	!	!	!	!	!	!
!	!	!	!	!	!	!	!	!LO:N:vis=2	!	!	!	!
!LO:TX:t=P:problem:kreska pseudotaktowa	!	!	!	!LO:TX:a:t=P:problem:# above	!	!	!	!	!	!	!	!
0E	-a	-a	-a	0g#X	-a	-a	-a	1.B	-a	.	1e	-a
.	.	.	.	.	.	.	.	.	.	.	2rc	.
.	.	.	.	.	.	.	.	2e\	Im-	.	1ryy	.
!LO:LB:g=original	!	!	!	!	!	!	!	!LO:LB:g=original	!	!	!	!
=33-	=33-	=33-	=33-	=33-	=33-	=33-	=33-	=33-	=33-	=33-	=33-	=33-
*	*	*	*	*M2/1	*	*	*	*	*	*	*	*
*	*	*	*	*met(C|)	*	*	*	*	*	*	*	*
2r	.	.	.	2r	.	.	.	2c\	-ma-	.	.	.
2A\	Im-	.	.	1a	Im-	.	.	2c\	-cu-	.	2e\	im-
2D/	-ma-	.	.	.	.	.	.	2A/	-la-	.	2f\	-ma-
2E\	-cu-	.	.	2.cc\	-ma-	.	.	2G/ny	-ta	.	2e\	-cu-
=34-	=34-	=34-	=34-	=34-	=34-	=34-	=34-	=34-	=34-	=34-	=34-	=34-
2F\	-la-	.	.	.	.	.	.	1A	me-	.	2c/	-la-
.	.	.	.	4cc\	-cu-	.	.	.	.	.	.	.
2D/	-ta	.	.	2.dd\	-la-	.	.	.	.	.	2f\	-ta
!	!	!	!	!	!	!	!	!	!	!	!LO:LB:g=original	!
*	*	*	*	*	*	*	*	*	*	*	*lig	*
2.E\	me-	.	.	.	.	.	.	1G	-a	.	1e	me-
.	.	.	.	4cc\	-ta	.	.	.	.	.	.	.
.	.	.	.	2.cc\	me-	.	.	.	.	.	.	.
4F\	.	.	.	.	.	.	.	.	.	.	.	.
=35-	=35-	=35-	=35-	=35-	=35-	=35-	=35-	=35-	=35-	=35-	=35-	=35-
1G	-a	.	.	.	.	.	.	1r	.	.	1d	.
.	.	.	.	8b\L	.	.	.	.	.	.	.	.
.	.	.	.	8a\J	.	.	.	.	.	.	.	.
.	.	.	.	2b\	a	.	.	.	.	.	.	.
*	*	*	*	*	*	*	*	*	*	*	*Xlig	*
*	*ij	*	*	*	*ij	*	*	*	*	*	*	*
2C/	Im-	.	.	2cc\	Im-	.	.	2r	.	.	2e\	-a
*	*	*	*	*	*	*	*	*	*ij	*	*	*ij
2G\	-ma-	.	.	2b\	-ma-	.	.	2B\	Im-	.	2e\	im-
=36-	=36-	=36-	=36-	=36-	=36-	=36-	=36-	=36-	=36-	=36-	=36-	=36-
2E\	-cu-	.	.	2g/ny	-cu-	.	.	2B\	-ma-	.	2e\	-ma-
2E\	-la-	.	.	2g/	-la-	.	.	2c\	-cu-	.	2e\	-cu-
4F\	-ta	.	.	4a\	-ta	.	.	4A\	-la-	.	4c/	-la-
4D\	.	.	.	4a\	me-	.	.	4d\	-ta	.	4f\	-ta
!	!	!	!	!LO:TX:a:t=P:problem:# above	!	!	!	!	!	!	!	!
2E\	me-	.	.	2g#X/	.	.	.	2B\	me-	.	2e\	me-
=37-	=37-	=37-	=37-	=37-	=37-	=37-	=37-	=37-	=37-	=37-	=37-	=37-
!	!	!	!	!	!	!	!	!LO:TX:t=P:problem:♯ above	!	!	!	!
1AA	-a	.	.	1a	-a	.	.	1c#X	-a	.	1e	-a
*	*Xij	*	*	*	*Xij	*	*	*	*Xij	*	*	*Xij
!	!	!	!	!LO:TX:a:t=aperi\nut\nſup[ra]	!	!	!	!	!	!	!	!
=38-	=38-	=38-	=38-	=38-	=38-	=38-	=38-	=38-	=38-	=38-	=38-	=38-
*M3/1	*	*	*	*M3/1	*	*	*	*M3/1	*	*	*M3/1	*
!LO:TX:a:t=aperi ut ſup[ra]	!	!	!	!	!	!	!	!	!	!	!	!
1.c	a-	.	.	1.cc	a-	.	.	1.e	a-	.	1.g	a-
2G\	-pe-	.	.	2b\	-pe-	.	.	2d\	-pe-	.	2g\	-pe-
1A	-ri	.	.	1a	-ri	.	.	1cny	-ri	.	1e	-ri
=39-	=39-	=39-	=39-	=39-	=39-	=39-	=39-	=39-	=39-	=39-	=39-	=39-
0E	mi-	.	.	0gny	mi-	.	.	0B	mi-	.	0e	mi-
1E	-hi	.	.	1g	-hi	.	.	1B	-hi	.	1e	-hi
=40-	=40-	=40-	=40-	=40-	=40-	=40-	=40-	=40-	=40-	=40-	=40-	=40-
*	*ij	*	*	*	*ij	*	*	*	*ij	*	*	*ij
1.C	a-	.	.	1.g	a-	.	.	1.c	a-	.	1.e	a-
2GG/	-pe-	.	.	2g/	-pe-	.	.	2B\	-pe-	.	2e\	-pe-
1AA	-ri	.	.	1e	-ri	.	.	1A	-ri	.	1c	-ri
=41-	=41-	=41-	=41-	=41-	=41-	=41-	=41-	=41-	=41-	=41-	=41-	=41-
0E	mi-	.	.	0e	mi-	.	.	0G	mi-	.	0B	mi-
!	!	!	!	!	!	!	!	!LO:TX:t=P:problem:♯ above	!	!	!	!
1E	-hi	.	.	1e	-hi	.	.	1G#X	-hi	.	1B	-hi
*	*Xij	*	*	*	*Xij	*	*	*	*Xij	*	*	*Xij
=42-	=42-	=42-	=42-	=42-	=42-	=42-	=42-	=42-	=42-	=42-	=42-	=42-
0AA	1So-	2 colum-	3 ami-	0cc	1. So-	2. colum-	3. ami-	1A	co-	.	1e	a-
.	.	.	.	.	.	.	.	1A	-lum-	.	1e	-mi-
1GG	-ror	-ba	-ca	1b	-ror	-ba	-ca	1B	-ba	.	1e	-ca
=43-	=43-	=43-	=43-	=43-	=43-	=43-	=43-	=43-	=43-	=43-	=43-	=43-
0.AA	me-	me-	me-	0.a	me-	me-	me-	0.c	mea	.	0.e	me-
=44-	=44-	=44-	=44-	=44-	=44-	=44-	=44-	=44-	=44-	=44-	=44-	=44-
*M2/1	*	*	*	*	*	*	*	*	*	*	*M2/1	*
*met(C|)	*	*	*	*	*	*	*	*	*	*	*met(C|)	*
!LO:N:vis=1	!	!	!	!LO:N:vis=0.	!	!	!	!	!	!	!	!
*	*	*	*	*	*	*	*	*	*	*	*	*
!	!	!	!	!LO:TX:a:t=P:problem:# above	!	!	!	!	!	!	!LO:N:vis=1	!
0E	-a	-a	-a	0g#X	-a	-a	-a	0ryy	.	.	0e	-a
=45-	=45-	=45-	=45-	=45-	=45-	=45-	=45-	=45-	=45-	=45-	=45-	=45-
*	*	*	*	*M2/1	*	*	*	*M2/1	*	*	*	*
*	*	*	*	*met(C|)	*	*	*	*met(C|)	*	*	*	*
2r	.	.	.	2r	.	.	.	2r	.	.	2rA	.
!	!	!	!	!	!	!	!	!	!	!	!LO:TX:t=P:problem:kreska pseudotaktowa	!
2A\	Ex-	.	.	2a\	Ex-	.	.	2c\	ex-	.	2c/	ex-
!	!	!	!	!	!	!	!	!	!	!	!LO:LB:g=original	!
2G\	-po-	.	.	2b\	-po-	.	.	2B\	-po-	.	2d\	-po-
!	!	!	!	!	!	!	!	!	!	!	!LO:TX:t=P:problem:kreska pseudotaktowa	!
2E\	-li-	.	.	2cc\	-li-	.	.	2G/ny	-li-	.	2e\	-li-
=46-	=46-	=46-	=46-	=46-	=46-	=46-	=46-	=46-	=46-	=46-	=46-	=46-
2F\	-a-	.	.	2a\	-a-	.	.	2A\	-a-	.	2c\	-a-
!	!	!	!	!	!	!	!	!	!	!	!LO:TX:t=P:problem:kreska pseudotaktowa	!
2D/	-vi	.	.	2f/	-vi	.	.	2B\	-vi	.	2d\	-vi
2C/	me	.	.	2e/	me	.	.	2c\	me	.	2e\	me
2F\	tu-	.	.	2.a\	tu-	.	.	2.c\	tu-	.	2.f\	tu-
=47-	=47-	=47-	=47-	=47-	=47-	=47-	=47-	=47-	=47-	=47-	=47-	=47-
!LO:N:xstem:cue	!	!	!	!	!	!	!	!	!	!	!	!
4F	.	.	.	.	.	.	.	.	.	.	.	.
4F\	-ni-	.	.	4a\	-ni-	.	.	4c\	-ni-	.	4f\	-ni-
!	!	!	!	!	!	!	!	!	!	!	!LO:TX:t=P:problem:kreska pseudotaktowa	!
2D/	-ca	.	.	2a\	-ca	.	.	2.d\	-ca	.	2f\	-ca
*	*	*	*	*	*	*	*	*	*	*	*lig	*
2.E\	me-	.	.	0gny	me-	.	.	.	.	.	1e	me-
.	.	.	.	.	.	.	.	4c\	.	.	.	.
!	!	!	!	!	!	!	!	!LO:LB:g=original	!	!	!	!
.	.	.	.	.	.	.	.	2.c\	me-	.	.	.
4F\	-a	.	.	.	.	.	.	.	.	.	.	.
=48-	=48-	=48-	=48-	=48-	=48-	=48-	=48-	=48-	=48-	=48-	=48-	=48-
1G	.	.	.	.	.	.	.	.	.	.	1d	.
.	.	.	.	.	.	.	.	8B\L	.	.	.	.
.	.	.	.	.	.	.	.	8A\J	.	.	.	.
.	.	.	.	.	.	.	.	2B\	.	.	.	.
*	*	*	*	*	*	*	*	*	*	*	*Xlig	*
2C/	quo-	.	.	2g/	-a	.	.	2c\	-a	.	2e\	-a
!	!	!	!	!	!	!	!	!	!	!	!LO:TX:t=P:problem:kreska pseudotaktowa	!
2.c\	.	.	.	2.cc\	quo-	.	.	2.e\	quo-	.	2.g\	quo-
=49-	=49-	=49-	=49-	=49-	=49-	=49-	=49-	=49-	=49-	=49-	=49-	=49-
.	.	.	.	.	.	.	.	.	.	.	.	.
4c\	-mo-	.	.	4cc\	-mo-	.	.	4e\	-mo-	.	4g\	-mo-
2G\	-do	.	.	2b\	-do	.	.	2d\	-do	.	2g\	-do
2.A\	in-	.	.	2.a\	in-	.	.	2.c\	in-	.	2.e\	in-
!	!	!	!	!	!	!	!	!	!	!	!LO:TX:t=P:problem:kreska pseudotaktowa	!
4A\	-du-	.	.	4a\	-du-	.	.	4c\	-du-	.	4e\	-du-
=50-	=50-	=50-	=50-	=50-	=50-	=50-	=50-	=50-	=50-	=50-	=50-	=50-
1D	-ar	.	.	2a\	-ar	.	.	1d	-ar	.	1f	-ar
.	.	.	.	2.a/	il-	.	.	.	.	.	.	.
!	!	!	!	!	!	!	!	!	!	!	!LO:TX:t=P:problem:kreska pseudotaktowa	!
1E	il-	.	.	.	.	.	.	1B	il-	.	1e	il-
!	!	!	!	!LO:SIC:v:s=8g#	!	!	!	!	!	!	!	!
.	.	.	.	8g/L	.	.	.	.	.	.	.	.
.	.	.	.	8f/J	.	.	.	.	.	.	.	.
!	!	!	!	!LO:SIC:v:2g#	!	!	!	!	!	!	!	!
.	.	.	.	2g/	.	.	.	.	.	.	.	.
=51-	=51-	=51-	=51-	=51-	=51-	=51-	=51-	=51-	=51-	=51-	=51-	=51-
1AA	-la	.	.	1a	-la	.	.	1c	-la	.	1e	-la
=52-	=52-	=52-	=52-	=52-	=52-	=52-	=52-	=52-	=52-	=52-	=52-	=52-
*M3/1	*	*	*	*M3/1	*	*	*	*M3/1	*	*	*M3/1	*
!	!	!	!	!LO:TX:a:t=P:problem:problem z renderowaniem - "n\" nie dzieli wersu	!	!	!	!	!	!	!	!
!	!	!	!	!LO:TX:a:t=aperi\nut\nſup[ra]	!	!	!	!	!	!	!	!
1.c	a-	.	.	1.cc	a-	.	.	1.e	a-	.	1.g	a-
2G\	-pe-	.	.	2b\	-pe-	.	.	2d\	-pe-	.	2g\	-pe-
1A	-ri	.	.	1a	-ri	.	.	1c	-ri	.	1e	-ri
=53-	=53-	=53-	=53-	=53-	=53-	=53-	=53-	=53-	=53-	=53-	=53-	=53-
0E	mi-	.	.	0g	mi-	.	.	0B	mi-	.	0e	mi-
1E	-hi	.	.	1g	-hi	.	.	1B	-hi	.	1e	-hi
=54-	=54-	=54-	=54-	=54-	=54-	=54-	=54-	=54-	=54-	=54-	=54-	=54-
*	*ij	*	*	*	*ij	*	*	*	*ij	*	*	*ij
1.C	a-	.	.	1.g	a-	.	.	1.c	a-	.	1.e	a-
2GG/	-pe-	.	.	2g/	-pe-	.	.	2B\	-pe-	.	2e\	-pe-
!	!	!	!	!	!	!	!	!	!	!	!LO:SIC:v:t=custos B	!
1AA	-ri	.	.	1e	-ri	.	.	1A	-ri	.	1c	-ri
!	!	!	!	!	!	!	!	!	!	!	!LO:LB:g=original	!
=55-	=55-	=55-	=55-	=55-	=55-	=55-	=55-	=55-	=55-	=55-	=55-	=55-
!	!	!	!	!	!	!	!	!LO:TX:t=P:problem:♯ above	!	!	!	!
0E	mi-	.	.	0e	mi-	.	.	0G#X	mi-	.	0B	mi-
1E	-hi	.	.	1e	-hi	.	.	1G#	-hi	.	1B	-hi
*	*Xij	*	*	*	*Xij	*	*	*	*Xij	*	*	*Xij
!LO:LB:g=original	!	!	!	!	!	!	!	!	!	!	!	!
=56-	=56-	=56-	=56-	=56-	=56-	=56-	=56-	=56-	=56-	=56-	=56-	=56-
1AA	Im-	.	.	0cc	1. So-	2. colum-	3. ami-	1A	im-	.	1e	Im-
1AA	-ma-	.	.	.	.	.	.	1A	-ma-	.	1e	-ma-
1GG	-cu-	.	.	1b	-ror	-ba	-ca	1B	-cu-	.	1e	-cu-
=57-	=57-	=57-	=57-	=57-	=57-	=57-	=57-	=57-	=57-	=57-	=57-	=57-
0AA	-la-	.	.	1%3ryy	.	.	.	0c	-la-	.	0e	-la-
1E	-ta	.	.	.	.	.	.	1B	-ta	.	1e	-ta
=58-	=58-	=58-	=58-	=58-	=58-	=58-	=58-	=58-	=58-	=58-	=58-	=58-
*M2/1	*	*	*	*	*	*	*	*M2/1	*	*	*M2/1	*
*met(C|)	*	*	*	*	*	*	*	*met(C|)	*	*	*met(C|)	*
!LO:N:vis=0	!	!	!	!LO:N:vis=0.	!	!	!	!	!	!	!	!
*	*	*	*	*	*	*	*	*	*	*	*	*
1AA	me-	.	.	1a	me-	me-	me-	2.A\	me-	.	1e	me-
.	.	.	.	.	.	.	.	4B\	.	.	.	.
!LO:N:vis=0	!	!	!	!LO:N:vis=0.	!	!	!	!LO:N:vis=0	!	!	!LO:N:vis=0	!
1E;;;	-a	.	.	1g#X	-a	-a	-a	1B;;	-a	.	1e;;	-a
=-	=-	=-	=-	=-	=-	=-	=-	=-	=-	=-	=-	=-
*-	*-	*-	*-	*-	*-	*-	*-	*-	*-	*-	*-	*-
!!!system-decoration: [(s1,s2,s3,s4)]
!!!RDF**kern: l = terminal long
!!!RDF**kern: > = above
!!!RDF**kern: < = below
!!!EED: Antoni Szymański
!!!EST: 2021-04-04
!!!ENC: Krzysztof Stępień
!!!END: 2021-03-24
